src/assets/outline/Illustrator.svg

<?xml version="1.0" encoding="UTF-8"?>
<svg width="24" height="24" viewBox="0 0 24 24" xmlns="http://www.w3.org/2000/svg">
 <path d="m12.82 16.72c-0.31 0-0.61-0.2-0.71-0.51l-2.03-6.1-2.74 6.17c-0.17 0.38-0.61 0.55-0.99 0.38s-0.55-0.61-0.38-0.99l3.53-7.93c0.13-0.28 0.4-0.47 0.71996-0.44 0.31 0.01 0.58 0.22001 0.68 0.51001l2.64 7.93c0.13 0.39-0.08 0.82-0.47 0.95-0.09 0.01-0.17 0.03-0.25 0.03z"/>
 <path d="m11.94 12.57h-4.41v1.5h4.41v-1.5z"/>
 <path d="m16.35 16.72c-0.41 0-0.75-0.34-0.75-0.75v-5.29c0-0.41 0.34-0.75001 0.75-0.75001s0.75 0.34001 0.75 0.75001v5.29c0 0.41-0.34 0.75-0.75 0.75z"/>
 <path d="m16.35 9.029c-0.27 0-0.52-0.10001-0.71-0.29001-0.09-0.09-0.17-0.19997-0.22-0.31997-0.05-0.13-0.07-0.25002-0.07-0.39002 0-0.13 0.02-0.26 0.07-0.38 0.06-0.12 0.13-0.23001 0.22-0.32001 0.09-0.1 0.2-0.17 0.32-0.22 0.37-0.15 0.82-0.06 1.09 0.22 0.1 0.09 0.17 0.20001 0.22 0.32001s0.08 0.25 0.08 0.38c0 0.14-0.03 0.27002-0.08 0.39002s-0.12 0.22997-0.22 0.31997c-0.09 0.09-0.2 0.17-0.32 0.22s-0.25 0.07001-0.38 0.07001z"/>
 <path d="m15 22.75h-6c-5.43 0-7.75-2.32-7.75-7.75v-6c0-5.43 2.32-7.75 7.75-7.75h6c5.43 0 7.75 2.32 7.75 7.75v6c0 5.43-2.32 7.75-7.75 7.75zm-6-20c-4.61 0-6.25 1.64-6.25 6.25v6c0 4.61 1.64 6.25 6.25 6.25h6c4.61 0 6.25-1.64 6.25-6.25v-6c0-4.61-1.64-6.25-6.25-6.25h-6z"/>
</svg>

<svg width="24" height="24" viewBox="0 0 24 24"  xmlns="http://www.w3.org/2000/svg">
<path d="M12.8202 16.72C12.5102 16.72 12.2102 16.52 12.1102 16.21L10.0802 10.11L7.34024 16.28C7.17024 16.66 6.73024 16.83 6.35024 16.66C5.97024 16.49 5.80024 16.05 5.97024 15.67L9.50024 7.73999C9.63024 7.45999 9.90024 7.26999 10.2202 7.29999C10.5302 7.30999 10.8002 7.52 10.9002 7.81L13.5402 15.74C13.6702 16.13 13.4602 16.56 13.0702 16.69C12.9802 16.7 12.9002 16.72 12.8202 16.72Z" />
<path d="M11.9398 12.5703H7.52979V14.0703H11.9398V12.5703Z" />
<path d="M16.3501 16.7197C15.9401 16.7197 15.6001 16.3797 15.6001 15.9697V10.6797C15.6001 10.2697 15.9401 9.92969 16.3501 9.92969C16.7601 9.92969 17.1001 10.2697 17.1001 10.6797V15.9697C17.1001 16.3797 16.7601 16.7197 16.3501 16.7197Z" />
<path d="M16.3501 9.02904C16.0801 9.02904 15.8301 8.92903 15.6401 8.73903C15.5501 8.64903 15.4701 8.53906 15.4201 8.41906C15.3701 8.28906 15.3501 8.16904 15.3501 8.02904C15.3501 7.89904 15.3701 7.76904 15.4201 7.64904C15.4801 7.52904 15.5501 7.41903 15.6401 7.32903C15.7301 7.22903 15.8401 7.15903 15.9601 7.10903C16.3301 6.95903 16.7801 7.04903 17.0501 7.32903C17.1501 7.41903 17.2201 7.52904 17.2701 7.64904C17.3201 7.76904 17.3501 7.89904 17.3501 8.02904C17.3501 8.16904 17.3201 8.29906 17.2701 8.41906C17.2201 8.53906 17.1501 8.64903 17.0501 8.73903C16.9601 8.82903 16.8501 8.90903 16.7301 8.95903C16.6101 9.00903 16.4801 9.02904 16.3501 9.02904Z" />
<path d="M15 22.75H9C3.57 22.75 1.25 20.43 1.25 15V9C1.25 3.57 3.57 1.25 9 1.25H15C20.43 1.25 22.75 3.57 22.75 9V15C22.75 20.43 20.43 22.75 15 22.75ZM9 2.75C4.39 2.75 2.75 4.39 2.75 9V15C2.75 19.61 4.39 21.25 9 21.25H15C19.61 21.25 21.25 19.61 21.25 15V9C21.25 4.39 19.61 2.75 15 2.75H9Z" />
</svg>
